X:127
T:Chatsworth House
T:Dance
S:John Moore's Book 2
Z:Transcribed by Edmund Spriggs 05/2021
%%VWML: Moore1-4494-p98-0
F:http://www.vwml.org/record/Moore2/4494/p98
M:6/8
N:The last bar should be crotchet-quaver-crotchet.
N:The words "Tune playd strait through" appear at the end of the tune.
L:1/8
K:G
d|{e/}d^cd Bgf|age d2c|Bdg bBc|edBA2d|
d^cd Bgf|age d2c|BgB BAc|edF G2|]
[|A|AFd dAF|GEe e^cA|AFa afd|e^cA d2A|
AFd dAF|GEe e^cA|AGa afd|e^cAd2|]
[|d|d>ed =c2B|A2Bc2a|aba g2f|g2a b2d|
d>ed =c2B|A2Bc2a|aba g2f|g2b2g2|]
W:Tune playd strait through

